agir/front/components/genericComponents/images/banner-map-background.svg

<svg width="420" height="222" viewBox="0 0 420 222" fill="none" xmlns="http://www.w3.org/2000/svg">
  <rect width="420" height="222" fill="#F4ED0F"/>
  <g clip-path="url(#clip0)">
    <path d="M219.199 162.004L195.245 138.114C182.015 124.92 181.911 103.631 195.013 90.5647C208.115 77.4983 229.46 77.6018 242.69 90.796C255.92 103.99 256.023 125.279 242.922 138.345L219.199 162.004Z" fill="white"/>
    <path
      fill-rule="evenodd"
      clip-rule="evenodd"
      d="M183.333 120.961L202.238 139.815L221.143 120.961C231.584 110.548 231.584 93.6652 221.143 83.2523C210.702 72.8395 193.774 72.8395 183.333 83.2523C172.893 93.6652 172.893 110.548 183.333 120.961ZM202.238 151.211L226.857 126.659C240.453 113.099 240.453 91.114 226.857 77.5542C213.26 63.9944 191.216 63.9944 177.62 77.5542C164.024 91.114 164.024 113.099 177.62 126.659L202.238 151.211Z"
      fill="#000A2C"/>
  </g>
  <defs>
    <clipPath id="clip0">
      <rect width="87" height="95" fill="white" transform="translate(167 67)"/>
    </clipPath>
  </defs>
</svg>

<svg width="420" height="222" fill="none" xmlns="http://www.w3.org/2000/svg"><path fill="#F4ED0F" d="M0 0h420v222H0z"/><g clip-path="url(#a)"><path d="m219.199 162.004-23.954-23.89c-13.23-13.194-13.334-34.483-.232-47.55 13.102-13.066 34.447-12.962 47.677.232 13.23 13.194 13.333 34.483.232 47.549l-23.723 23.659Z" fill="#fff"/><path fill-rule="evenodd" clip-rule="evenodd" d="m183.333 120.961 18.905 18.854 18.905-18.854c10.441-10.413 10.441-27.296 0-37.709-10.441-10.412-27.369-10.412-37.81 0-10.44 10.413-10.44 27.296 0 37.709Zm18.905 30.25 24.619-24.552c13.596-13.56 13.596-35.545 0-49.105-13.597-13.56-35.641-13.56-49.237 0-13.596 13.56-13.596 35.545 0 49.105l24.618 24.552Z" fill="#000A2C"/></g><defs><clipPath id="a"><path fill="#fff" transform="translate(167 67)" d="M0 0h87v95H0z"/></clipPath></defs></svg>
